svg/about/fun.svg

<svg width="50" height="51" viewBox="0 0 50 51" fill="none" xmlns="http://www.w3.org/2000/svg">
<path fill-rule="evenodd" clip-rule="evenodd" d="M10.0467 45.7214L15.7418 43.2821L8.99054 24.8531L5.73887 33.9603L10.0467 45.7214ZM4.64317 37.0266L0 50.0271L8.13023 46.5442L4.64317 37.0266ZM17.6582 42.4614L23.7699 39.8409L16.5167 20.7995L11.9027 16.6979L10.0862 21.7869L17.6582 42.4614ZM33.3292 35.7455L19.8871 23.797L25.6885 39.0201L33.3292 35.7455ZM31.6085 25.3239L36.1934 22.3139C36.6725 21.9972 36.8079 21.3515 36.4913 20.8703C36.1746 20.387 35.5268 20.2558 35.0498 20.5724L30.4649 23.5825C29.9838 23.897 29.8504 24.5428 30.165 25.024C30.365 25.3302 30.6982 25.4947 31.0357 25.4947C31.2336 25.4947 31.4315 25.4406 31.6085 25.3239ZM25.3739 16.3417L27.6903 11.3673C27.934 10.8466 27.707 10.2258 27.1862 9.98417C26.6633 9.74253 26.0447 9.96542 25.8009 10.4883L23.4866 15.4627C23.2429 15.9834 23.47 16.6021 23.9908 16.8458L24.4303 16.9437C24.824 16.9437 25.1968 16.7208 25.3739 16.3417ZM19.9017 17.8186C23.1075 11.6465 23.3263 5.8826 20.5558 0.69158C20.3683 0.339541 20.0079 0.139566 19.635 0.139566C18.8643 0.139566 18.3415 0.968629 18.7185 1.67271C21.1474 6.22214 20.9224 11.3319 18.0519 16.8583C17.7874 17.3687 17.9873 17.9977 18.4977 18.2623C18.6498 18.3415 18.8143 18.381 18.9768 18.381C19.3517 18.381 19.7163 18.1748 19.9017 17.8186ZM33.4521 30.5149C37.6536 27.5278 42.7488 27.0987 48.6002 29.238C49.2813 29.4859 50 28.9818 50 28.259C50 27.8361 49.7396 27.4362 49.3167 27.2799C42.7842 24.8906 37.0391 25.4052 32.2439 28.8172C31.7773 29.1505 31.6669 29.8004 32.0002 30.2712C32.2043 30.5545 32.523 30.7066 32.848 30.7066C33.0584 30.7066 33.2688 30.6441 33.4521 30.5149ZM41.2782 16.4396L37.7432 16.4688L39.6971 19.4163L38.6327 22.7867L42.0385 21.8389L44.9152 23.8928L45.0673 20.36L47.9107 18.2581L44.5965 17.025L43.4758 13.6712L41.2782 16.4396ZM26.0572 23.9887C26.6321 23.9699 27.082 23.4887 27.0633 22.9117C26.9466 19.5226 27.8132 18.8768 29.9317 18.6393C33.45 18.2415 33.65 15.9063 33.7687 14.5107C33.8791 13.1838 33.9166 12.738 35.3789 12.6297C36.6912 12.5338 38.1515 12.2964 39.0451 11.2569C40.0054 10.1362 40.0158 8.42811 39.8825 6.74916C39.8388 6.17423 39.3284 5.75345 38.7639 5.79303C38.1911 5.83677 37.7619 6.33879 37.8078 6.91164C37.9369 8.55101 37.8307 9.47381 37.4641 9.89876C37.1537 10.2612 36.4642 10.4633 35.2268 10.5528C31.9918 10.7903 31.8023 13.0088 31.6919 14.3357C31.5731 15.7272 31.5211 16.3625 29.7005 16.5667C25.3781 17.0541 24.8781 19.9392 24.9802 22.9825C25.001 23.545 25.4614 23.9887 26.0217 23.9887H26.0572ZM42.3926 5.91801C42.3926 8.01358 44.0966 9.71754 46.1942 9.71754C48.2898 9.71754 49.9938 8.01358 49.9938 5.91801C49.9938 3.82036 48.2898 2.1164 46.1942 2.1164C44.0966 2.1164 42.3926 3.82036 42.3926 5.91801ZM28.5964 0C30.8961 0 32.7626 1.86852 32.7626 4.16615C32.7626 6.46586 30.8961 8.33229 28.5964 8.33229C26.2988 8.33229 24.4303 6.46586 24.4303 4.16615C24.4303 1.86852 26.2988 0 28.5964 0Z" fill="#E95C6D"/>
</svg>

<svg width="50" height="51" fill="none" xmlns="http://www.w3.org/2000/svg"><path fill-rule="evenodd" clip-rule="evenodd" d="M10.05 45.72l5.7-2.44-6.76-18.43-3.25 9.11 4.3 11.76zm-5.4-8.7L0 50.03l8.13-3.48-3.49-9.51zm13 5.44l6.12-2.62-7.25-19.04-4.62-4.1-1.81 5.09 7.57 20.67zm15.68-6.71L19.89 23.8l5.8 15.22 7.64-3.27zM31.6 25.32l4.58-3a1.04 1.04 0 00-1.14-1.75l-4.59 3.01a1.04 1.04 0 101.15 1.74zm-6.24-8.98l2.32-4.97a1.04 1.04 0 10-1.89-.88l-2.31 4.97c-.25.52-.02 1.14.5 1.39l.44.1c.4 0 .77-.23.94-.6zm-5.47 1.48c3.2-6.17 3.43-11.94.66-17.13a1.04 1.04 0 10-1.84.98c2.43 4.55 2.2 9.66-.67 15.19a1.04 1.04 0 001.85.96zm13.55 12.7c4.2-3 9.3-3.42 15.15-1.28a1.04 1.04 0 00.72-1.96c-6.54-2.39-12.28-1.87-17.08 1.54a1.04 1.04 0 00.6 1.89c.22 0 .43-.07.61-.2zm7.83-14.08l-3.54.03 1.96 2.95-1.07 3.37 3.4-.95 2.89 2.05.15-3.53 2.84-2.1-3.31-1.24-1.12-3.35-2.2 2.77zm-15.22 7.55c.57-.02 1.02-.5 1-1.08-.11-3.39.75-4.03 2.87-4.27 3.52-.4 3.72-2.73 3.84-4.13.1-1.33.15-1.77 1.6-1.88 1.32-.1 2.78-.33 3.68-1.37.96-1.12.97-2.83.83-4.51a1.04 1.04 0 10-2.07.16c.13 1.64.02 2.56-.35 2.99-.3.36-1 .56-2.23.65-3.24.24-3.43 2.46-3.54 3.79-.12 1.39-.17 2.02-1.99 2.23-4.32.48-4.82 3.37-4.72 6.41.02.57.48 1 1.04 1h.04zM42.39 5.92A3.8 3.8 0 1050 5.9a3.8 3.8 0 00-7.6 0zM28.6 0a4.17 4.17 0 110 8.34 4.17 4.17 0 010-8.34z" fill="#E95C6D"/></svg>
